Adwaita++-Dark/actions/16/twitter-dm.svg

<svg height="16" width="16" xmlns="http://www.w3.org/2000/svg">
  <path d="m3.5478 1-2.5478 7v7h14v-7l-2.548-7zm1.6522 2.04h5.6l2.169 5.96h-1.969l-1 2h-4l-1-2h-1.9693z" fill="#e6ddff"/>
</svg>

<svg xmlns="http://www.w3.org/2000/svg" width="16" height="16" version="1.1">
 <path style="fill:#E6DDFF" d="M 3.5478,1 1,8 V 15 H 15 V 8 L 12.452,1 Z M 5.2,3.04 H 10.8 L 12.969,9 H 11 L 10,11 H 6 L 5,9 H 3.0307 Z"/>
</svg>
